Obsidian-SemiLight/actions/24s/distribute-vertical-baseline.svg

<svg viewBox="0 0 24 24" xmlns="http://www.w3.org/2000/svg"><path d="m14.03125 4c0 1.8985 1.341099 3.4706469 2.349609 4.4355469-1.19879 1.2177-2.677009 1.7663691-5.380859 2.2304691l.277344 1.333984c6.02737-1.0344 8.722656-4.8245 8.722656-8h-1.476562c0 .9235-.466474 2.7059781-1.265626 3.3925781-.815789-.7731-1.799919-1.9681937-2.037109-3.3710937zm-8.03125 4-2 3h4zm11.130859 4.970703c-1.172738.02548-2.07396.215593-2.728515.496094l.36914 1.263672c.313637-.102059 1.499852-.458985 2.195313-.458985h.095703c.968193.03822 1.037109.368723 1.037109 1.146485v.30664l-.505859.076172c-2.345489.318762-3.599609.586484-3.599609 2.269531 0 1.173035.913577 1.900391 2.236328 1.900391.913646 0 1.513319-.35729 2.126953-.841797l.191406.714844h1.445313v-4.71875c0-1.440781-1.06283-2.154297-2.699219-2.154297zm.96875 3.748047v1.568359c-.504542.318763-.886459.548828-1.541015.548829-.586368 0-.873047-.345572-.873047-.830079 0-.918027.858184-1.070687 1.908203-1.210937zm-14.099609.28125 2 3 2-3z" fill="#4d4d4d"/></svg>

<svg xmlns="http://www.w3.org/2000/svg" viewBox="0 0 24 24">
  <defs id="defs3051">
    <style type="text/css" id="current-color-scheme">
      .ColorScheme-Text {
        color:#4d4d4d;
      }
      </style>
  </defs>
 <path style="fill:currentColor;fill-opacity:1;stroke:none" 
     d="M 14.03125 4 C 14.03125 5.8985 15.372349 7.4706469 16.380859 8.4355469 C 15.182069 9.6532469 13.70385 10.201916 11 10.666016 L 11.277344 12 C 17.304714 10.9656 20 7.1755 20 4 L 18.523438 4 C 18.523438 4.9235 18.056964 6.7059781 17.257812 7.3925781 C 16.442023 6.6194781 15.457893 5.4243844 15.220703 4.0214844 L 14.03125 4 z M 6 8 L 4 11 L 8 11 L 6 8 z M 17.130859 12.970703 C 15.958121 12.996183 15.056899 13.186296 14.402344 13.466797 L 14.771484 14.730469 C 15.085121 14.62841 16.271336 14.271484 16.966797 14.271484 L 17.0625 14.271484 C 18.030693 14.309704 18.099609 14.640207 18.099609 15.417969 L 18.099609 15.724609 L 17.59375 15.800781 C 15.248261 16.119543 13.994141 16.387265 13.994141 18.070312 C 13.994141 19.243347 14.907718 19.970703 16.230469 19.970703 C 17.144115 19.970703 17.743788 19.613413 18.357422 19.128906 L 18.548828 19.84375 L 19.994141 19.84375 L 19.994141 15.125 C 19.994141 13.684219 18.931311 12.970703 17.294922 12.970703 L 17.130859 12.970703 z M 18.099609 16.71875 L 18.099609 18.287109 C 17.595067 18.605872 17.21315 18.835937 16.558594 18.835938 C 15.972226 18.835938 15.685547 18.490366 15.685547 18.005859 C 15.685547 17.087832 16.543731 16.935172 17.59375 16.794922 L 18.099609 16.71875 z M 4 17 L 6 20 L 8 17 L 4 17 z "
     class="ColorScheme-Text"
     />
</svg>
